!!!!SEGMENT: pl-sa--95-a-ii-35--005_anonim--profitentes-unitatem.krn
!!!cenid: 17xx:1456
!!!COM: Anonim
!!!COM-rismID: pe30004985
!!!CDT:
!!!CNT:
!!!OTL: Profitentes unitatem
!!!PDT:
!!!AGN:
!!!SMS-siglum: PL-SA
!!!SMS-shelfmark: 95/A II 35
!!!SMS-shelfwork: 005 W
!!!SMS-variant:
!!!SMS-altvar:
!!!NIFC-rismSourceID: 1001041190
!!!NIFC-islandoraID:
!!!URL-pdf-islandora:
!!!URL-scan: https://bc.bdsandomierz.pl/dlibra/publication/1376/edition/1344/content @EN{Scan on Cyfrowa Biblioteka Diecezjalna w Sandomierzu} @PL{Skany w portalu Cyfrowa Biblioteka Diecezjalna w Sandomierzu}
!!!ONB-nifc: 5tus
!!!AIN: 1 empty 1 organ 2 violn
!!!key:
**kern	**fba	**kern	**dynam	**kern	**dynam	**kern	**text
*part4	*part4	*part3	*part3	*part2	*part2	*part1	*part1
*staff4	*	*staff3	*	*staff2	*	*staff1	*staff1
*Iorgan	*	*Ivioln	*	*Ivioln	*	*Iempty	*
*I"Organo	*	*I"Violino 2do	*	*I"Violino Primo	*	*I"Vox	*
*I'org	*	*I'vl 2	*	*I'vl 1	*	*I'B	*
*ICklav	*	*ICstr	*	*ICstr	*	*ICvox	*
*clefF4	*	*clefG2	*	*clefG2	*	*clefF4	*
*k[]	*	*k[]	*	*k[]	*	*k[]	*
*a:	*	*a:	*	*a:	*	*a:	*
*M4/4	*	*M4/4	*	*M4/4	*	*M4/4	*
*met(c)	*	*met(c)	*	*met(c)	*	*met(c)	*
*>[A,B,A]	*	*	*	*	*	*	*
=1	=1	=1	=1	=1	=1	=1	=1
*>A	*	*	*	*	*	*	*
!LO:TX:b:rj:t=5tus	!	!LO:TX:b:rj:t=Profitentes	!	!LO:TX:b:rj:t=Profitentes	!	!	!
!LO:TX:a:rj:t=Grave.	!	!LO:TX:b:rj:t=5tus	!	!LO:TX:b:rj:t=5tus	!	!	!
!LO:TX:a:rj:t=X.	!	!LO:TX:a:rj:t=Largo	!	!LO:TX:a:rj:t=Largo	!	!LO:TX:b:rj:t=5tus	!
4C/	.	8g/L	.	8g/L	.	00r	.
.	.	8cc/J	.	8cc/J	.	.	.
4r	.	[4cc\	.	[4cc\	.	.	.
8C/L	.	16cc\LL]	.	16cc\LL]	.	.	.
.	.	16b\	.	16b\	.	.	.
8D/	.	16cc\	.	16cc\	.	.	.
.	.	16dd\JJ	.	16dd\JJ	.	.	.
8E/	.	16cc\LL	.	8cc\L	.	.	.
.	.	16b\	.	.	.	.	.
8C/J	.	16cc\	.	8g\J	.	.	.
.	.	16ee\JJ	.	.	.	.	.
=2	=2	=2	=2	=2	=2	=2	=2
!	!	!LO:TX:t=P:problem=mixed beam	!	!	!	!	!
4GG/	.	8g/L	.	8g/L	.	.	.
.	.	8dd\J	.	8b/J	.	.	.
4r	.	4dd\	.	4b/	.	.	.
8GG/L	.	16dd\LL	.	16b\LL	.	.	.
.	.	16cc\	.	16a\	.	.	.
8AA/	.	16dd\	.	16b\	.	.	.
.	.	16ee\JJ	.	16cc\JJ	.	.	.
8BB/	.	8dd\L	.	8b\L	.	.	.
8C/J	.	8ee\J	.	8cc\J	.	.	.
=3	=3	=3	=3	=3	=3	=3	=3
8GG/L	7 5	8ff\	.	8dd\	.	.	.
8r	.	4ee\	.	4cc\	.	.	.
8C/J	.	.	.	.	.	.	.
8r	.	4dd\	.	8b/	.	.	.
4GG/	.	.	.	8b/	.	.	.
.	.	4cc\	.	4a/	.	.	.
4r	.	.	.	.	.	.	.
.	.	8b/	.	8g/	.	.	.
=4	=4	=4	=4	=4	=4	=4	=4
4GG/	.	4b/	.	4g/	.	.	.
4r	.	4cc\	.	4a/	.	.	.
4GG/	.	8dd\L	.	8b/L	.	.	.
.	.	16g\L	.	16g/L	.	.	.
.	.	16a\JJ	.	16a/JJ	.	.	.
4r	.	16b\LL	.	16b\LL	.	.	.
.	.	16cc\	.	16cc\	.	.	.
.	.	16dd\	.	16b\	.	.	.
.	.	16ee\JJ	.	16cc\JJ	.	.	.
!	!	!LO:LB:g=original	!	!LO:LB:g=original	!	!	!
=5	=5	=5	=5	=5	=5	=5	=5
!	!	!LO:TX:t=P:problem=mixed beam	!	!	!	!	!
4GG/	.	8g/L	.	8g\L	.	00r	.
.	.	8ff\	.	8dd\J	.	.	.
8r	.	8ff\	.	8dd\L	.	.	.
8C/	.	8ee\J	.	8cc\J	.	.	.
4GG/	.	4dd\	.	4b/	.	.	.
4r	.	4r	.	4r	.	.	.
=6	=6	=6	=6	=6	=6	=6	=6
4C/	.	8g\L	.	8g/L	.	.	.
.	.	8cc\J	.	8e/J	.	.	.
4r	.	[4cc\	.	4e/	.	.	.
4C/	.	16cc\LL]	.	16cc\LL	.	.	.
.	.	16dd\	.	16dd\	.	.	.
.	.	16ee\	.	16ee\	.	.	.
.	.	16ff\JJ	.	16ff\JJ	.	.	.
4r	.	[4gg\	.	[4gg\	.	.	.
!LO:LB:g=original	!	!	!	!	!	!	!
=7	=7	=7	=7	=7	=7	=7	=7
4C/	.	16gg\LL]	.	16gg\LL]	.	.	.
.	.	16ff\	.	16ff\	.	.	.
.	.	16ee\	.	16ee\	.	.	.
.	.	16dd\JJ	.	16dd\JJ	.	.	.
8r	.	8cc\L	.	8cc/L	.	.	.
8C/	-7 5	8b-X\J	.	8g/	.	.	.
8C/L	.	8b-/L	.	8g/	.	.	.
8F/J	.	8a/J	.	8f/J	.	.	.
4r	.	4r	.	4r	.	.	.
=8	=8	=8	=8	=8	=8	=8	=8
4D/	8 5	8a\L	.	8a\L	.	.	.
.	.	8dd\J	.	8dd\J	.	.	.
4r	.	[4dd\	.	[4dd\	.	.	.
4D/	.	16dd\LL]	.	16dd\LL]	.	.	.
.	.	16ee\	.	16ee\	.	.	.
.	.	16ff\	.	16ff\	.	.	.
.	.	16gg\JJ	.	16gg\JJ	.	.	.
4r	.	[4aa\	.	[4aa\	.	.	.
=9	=9	=9	=9	=9	=9	=9	=9
4D/	.	16aa\LL]	.	16aa\LL]	.	00r	.
.	.	16gg\	.	16gg\	.	.	.
.	.	16ff\	.	16ff\	.	.	.
.	.	16ee\JJ	.	16ee\JJ	.	.	.
8r	.	(8dd\L	.	8dd\L	.	.	.
8F\L	5	8cc\)	.	8a\	.	.	.
8G\	4	(8cc\	.	8a\	.	.	.
8G\J	3	8b\J)	.	8g\J	.	.	.
4r	.	4r	.	4r	.	.	.
!	!	!LO:LB:g=original	!	!LO:LB:g=original	!	!	!
=10	=10	=10	=10	=10	=10	=10	=10
!LO:TX:a:rj:t=|:problem	!	!	!	!	!	!	!
4G\	.	8g/L	.	8g/	.	.	.
.	.	8b/	.	4b/	.	.	.
4r	.	8b/	.	.	.	.	.
.	.	8dd/J	.	8b/	.	.	.
!LO:TX:a:rj:t=|:problem	!	!	!	!	!	!	!
4G\	.	8dd\	.	4b/	.	.	.
.	.	4ff\	.	.	.	.	.
4r	.	.	.	4b/	.	.	.
.	.	8ff\	.	.	.	.	.
=11	=11	=11	=11	=11	=11	=11	=11
!	!	!LO:TX:t=P:problem=mixed beam	!	!	!	!	!
8G\L	.	8g/L	.	8b\L	.	.	.
8A\	.	8ff\J	.	8dd\J	.	.	.
8B\	.	8ff\L	.	8dd\L	.	.	.
8G\J	.	16ee\L	.	16cc\L	.	.	.
.	.	16dd\JJ	.	16b\JJ	.	.	.
8c\L	.	8ee\L	.	8cc\L	.	.	.
8G\J	.	8dd\J	.	8b\J	.	.	.
4r	.	4r	.	4r	.	.	.
=12	=12	=12	=12	=12	=12	=12	=12
!LO:TX:a:rj:t=|:problem	!	!	!	!	!	!	!
8c\L	.	8cc/L	.	8cc\L	.	.	.
!LO:TX:a:rj:t=|:problem	!	!	!	!	!	!	!
16B\L	.	16b/L	.	16b\L	.	.	.
!LO:TX:a:rj:t=|:problem	!	!	!	!	!	!	!
16A\JJ	.	16a/JJ	.	16a\JJ	.	.	.
!LO:TX:a:rj:t=|:problem	!	!	!	!	!	!	!
4G\	.	4g/	.	4g/	.	.	.
!LO:TX:a:rj:t=|:problem	!	!	!	!	!	!	!
8A\L	.	8a/L	.	8a/L	.	.	.
!LO:TX:a:rj:t=|:problem	!	!	!	!	!	!	!
16G\L	.	16g/L	.	16g/L	.	.	.
!LO:TX:a:rj:t=|:problem	!	!	!	!	!	!	!
16F\JJ	.	16f/JJ	.	16f/JJ	.	.	.
!LO:TX:a:rj:t=|:problem	!	!	!	!	!	!	!
4E\	.	4e/	.	4e/	.	.	.
!LO:LB:g=original	!	!	!	!	!	!	!
=13	=13	=13	=13	=13	=13	=13	=13
!LO:TX:a:rj:t=|:problem	!	!	!	!	!	!LO:TX:t=P:problem=brak kreski taktowej	!
8F\L	.	8f/L	.	8f/L	.	2r	.
!LO:TX:a:rj:t=|:problem	!	!	!	!	!	!	!
16E\L	.	16e/L	.	16e/L	.	.	.
!LO:TX:a:rj:t=|:problem	!	!	!	!	!	!	!
16D\JJ	.	16d/JJ	.	16d/JJ	.	.	.
!LO:TX:a:rj:t=|:problem	!	!	!	!	!	!	!
!LO:TX:t=P:problem=mixed beam	!	!	!	!	!	!	!
8G\L	.	8g/L	.	8g/L	.	.	.
!LO:TX:a:rj:t=|:problem	!	!	!	!	!	!	!
8GG/J	.	8G/J	.	8G/J	.	.	.
4C/	.	4c/	.	4c/	.	8C/	Pro-
.	.	.	.	.	.	8C/	-fi-
4r	.	8r	.	8r	.	8C/	-ten-
!	!	!	!LO:DY:a	!	!LO:DY:a	!	!
.	.	8cc\	p	8cc\	p	8C/	-tes
=14	=14	=14	=14	=14	=14	=14	=14
0r	.	4c/	.	4c/	.	8C/	u-
.	.	.	.	.	.	16E\LL	-ni-
.	.	.	.	.	.	16F\JJ	.
.	.	8r	.	8r	.	8G\	-ta-
.	.	8cc\	.	8cc\	.	8C/	-tem
.	.	4c/	.	4c/	.	8C/	ve-
.	.	.	.	.	.	8C/	-ne-
.	.	8r	.	8r	.	8C/	-ra-
!	!	!LO:LB:g=original	!	!	!	!	!
.	.	8cc\	.	8cc\	.	8C/	-mur
!	!	!	!	!LO:LB:g=original	!	!	!
=15	=15	=15	=15	=15	=15	=15	=15
.	.	4c/	.	4c/	.	8C/	Tri-
.	.	.	.	.	.	16F\LL	-ni-
.	.	.	.	.	.	16G\JJ	.
.	.	4r	.	4r	.	8A\	-ta-
.	.	.	.	.	.	8C/	-tem
.	.	8B/L	.	8B/L	.	8G\	pa-
.	.	8c/	.	8c/	.	8E\	-ri
!	!	!	!	!	!	!LO:LB:g=original	!
.	.	8B/	.	8B/	.	8.D/	re-
.	.	8c/J	.	8c/J	.	.	.
.	.	.	.	.	.	16C/	-ve-
=16	=16	=16	=16	=16	=16	=16	=16
2r	.	8G/L	.	8G/L	.	8.G\	-ren-
.	.	8A/	.	8A/	.	.	.
.	.	.	.	.	.	16GG/	-ti-
.	.	8B/	.	8B/	.	4GG/	-a
.	.	8G/J	.	8G/J	.	.	.
!	!	!	!LO:DY:a	!	!LO:DY:a	!	!
4C/	.	8g/L	f	8g/L	f	2r	.
.	.	8cc/J	.	8e/J	.	.	.
4r	.	[4cc\	.	4e/	.	.	.
!!linebreak:original
=17	=17	=17	=17	=17	=17	=17	=17
4C/	.	16cc\LL]	.	16cc\LL	.	00r	.
.	.	16dd\	.	16dd\	.	.	.
.	.	16ee\	.	16ee\	.	.	.
.	.	16ff\JJ	.	16ff\JJ	.	.	.
4r	.	[4gg\	.	[4gg\	.	.	.
4C/	.	16gg\LL]	.	16gg\LL]	.	.	.
.	.	16ff\	.	16ff\	.	.	.
.	.	16ee\	.	16ee\	.	.	.
.	.	16dd\JJ	.	16dd\JJ	.	.	.
8r	.	8cc\L	.	8cc\L	.	.	.
8C/	-7 5	8b-X\J	.	8g\J	.	.	.
=18	=18	=18	=18	=18	=18	=18	=18
!	!	!LO:SIC:v:s:=8b-/L	!	!	!	!	!
8C\L	.	8b/L	.	8g/L	.	.	.
8F\J	.	8a/J	.	8f/J	.	.	.
4r	.	4r	.	4r	.	.	.
4D/	8 5	8a\L	.	8a\L	.	.	.
.	.	8dd\J	.	8dd\J	.	.	.
4r	.	[4dd\	.	[4dd\	.	.	.
=19	=19	=19	=19	=19	=19	=19	=19
4D/	.	16dd\LL]	.	16dd\LL]	.	.	.
.	.	16ee\	.	16ee\	.	.	.
.	.	16ff\	.	16ff\	.	.	.
.	.	16gg\JJ	.	16gg\JJ	.	.	.
4r	.	[4aa\	.	[4aa\	.	.	.
4D/	.	16aa\LL]	.	16aa\LL]	.	.	.
.	.	16gg\	.	16gg\	.	.	.
.	.	16ff\	.	16ff\	.	.	.
.	.	16ee\JJ	.	16ee\JJ	.	.	.
8r	.	8dd\L	.	8dd\L	.	.	.
8F\	5	8cc\J	.	[8a\J	.	.	.
!	!	!	!	!LO:LB:g=original	!	!	!
=20	=20	=20	=20	=20	=20	=20	=20
8G\L	4	8cc\L	.	8a/L]	.	.	.
8G\J	3	8b\J	.	8g/J	.	.	.
!	!	!LO:TX:b:rj:t=Verte Cito	!	!	!	!	!
4r	.	4r	.	4r	.	.	.
!	!	!LO:PB:g=original	!	!	!	!	!
!LO:TX:a:rj:t=|:problem	!	!	!	!	!	!	!
4G\	.	8g/	.	8g/L	.	.	.
.	.	4b\	.	8b/	.	.	.
4r	.	.	.	8b/	.	.	.
.	.	[8dd\	.	8b/J	.	.	.
=21	=21	=21	=21	=21	=21	=21	=21
!LO:TX:a:rj:t=|:problem	!	!	!	!	!	!	!
4G\	.	8dd\]	.	4b/	.	0r	.
.	.	4ff\	.	.	.	.	.
4r	.	.	.	4b/	.	.	.
.	.	8ff\	.	.	.	.	.
!LO:LB:g=original	!	!LO:TX:t=P:problem=mixed beam	!	!	!	!	!
8G\L	.	8g/L	.	8b\L	.	.	.
8A\	.	8ff\J	.	8dd\J	.	.	.
8B\	.	8ff\L	.	8dd\L	.	.	.
8G\J	.	16ee\L	.	16cc\L	.	.	.
.	.	16dd\JJ	.	16b\JJ	.	.	.
=22	=22	=22	=22	=22	=22	=22	=22
!LO:TX:a:rj:t=|:problem	!	!	!	!	!	!	!
8c\L	.	8ee\L	.	8cc\L	.	.	.
!LO:TX:a:rj:t=|:problem	!	!	!	!	!	!	!
8G\J	.	8dd\J	.	8b\J	.	.	.
!LO:TX:a:rj:t=|:problem	!	!	!	!	!	!	!
4r	.	4r	.	4r	.	.	.
!LO:TX:a:rj:t=|:problem	!	!	!	!	!	!	!
8c\L	.	8cc\L	.	8cc\L	.	.	.
!LO:TX:a:rj:t=|:problem	!	!	!	!	!	!	!
16B\L	.	16b\L	.	16b\L	.	.	.
!LO:TX:a:rj:t=|:problem	!	!	!	!	!	!	!
16A\JJ	.	16a\JJ	.	16a\JJ	.	.	.
!LO:TX:a:rj:t=|:problem	!	!	!	!	!	!	!
4G\	.	4g/	.	4g/	.	.	.
!!pagebreak:original
=23	=23	=23	=23	=23	=23	=23	=23
!LO:TX:a:rj:t=|:problem	!	!	!	!	!	!	!
8A\L	.	8a/L	.	8a/L	.	1r	.
!LO:TX:a:rj:t=|:problem	!	!	!	!	!	!	!
16G\L	.	16g/L	.	16g/L	.	.	.
!LO:TX:a:rj:t=|:problem	!	!	!	!	!	!	!
16F\JJ	.	16f/JJ	.	16f/JJ	.	.	.
!LO:TX:a:rj:t=|:problem	!	!	!	!	!	!	!
4E\	.	4e/	.	4e/	.	.	.
!LO:TX:a:rj:t=|:problem	!	!	!	!	!	!	!
8F\L	.	8f/L	.	8f/L	.	.	.
!LO:TX:a:rj:t=|:problem	!	!	!	!	!	!	!
16E\L	.	16e/L	.	8d/J	.	.	.
16D\JJ	.	16d/JJ	.	.	.	.	.
!LO:TX:t=P:problem=mixed beam	!	!	!	!	!	!	!
!LO:TX:a:rj:t=|:problem	!	!	!	!	!	!	!
8G\L	.	8g/L	.	8g/L	.	.	.
!LO:TX:a:rj:t=|:problem	!	!	!	!	!	!	!
8GG/J	.	8G/J	.	8G/J	.	.	.
=24	=24	=24	=24	=24	=24	=24	=24
!	!	!	!LO:DY:a	!	!	!	!
4C/	.	4c/	p	4c/	.	8C/	Pro-
.	.	.	.	.	.	8C/	-fi-
!	!	!	!	!	!LO:DY:a	!	!
4r	.	8r	.	8r	p	8C/	-ten-
.	.	8cc\	.	8cc\	.	8C/	-tes
2r	.	4c/	.	4c/	.	8C/	U-
.	.	.	.	.	.	16E\LL	-ni-
.	.	.	.	.	.	16F\JJ	.
.	.	8r	.	8r	.	8G\	-ta-
.	.	8cc\	.	8cc\	.	8C/	-tem
!	!	!LO:LB:g=original	!	!	!	!	!
=25	=25	=25	=25	=25	=25	=25	=25
00r	.	4c/	.	4c/	.	8C/	ve-
.	.	.	.	.	.	8C/	-ne-
.	.	8r	.	8r	.	8C/	-ra-
.	.	8cc\	.	8cc\	.	8C/	-mur
.	.	4c/	.	4c/	.	8C/	Tri-
.	.	.	.	.	.	8G\	-ni-
!	!	!	!	!LO:TX:b:rj:t=Verte	!	!	!
.	.	4r	.	4r	.	8A\	-ta-
.	.	.	.	.	.	8C/	-tem
!	!	!	!	!LO:PB:g=original	!	!LO:LB:g=original	!
=26	=26	=26	=26	=26	=26	=26	=26
.	.	8B/L	.	8B/L	.	8G\	pa-
.	.	8c/	.	8c/	.	8E\	-ri
.	.	8B/	.	8B/	.	8.D/	re-
.	.	8c/J	.	8c/J	.	.	.
.	.	.	.	.	.	16C/	-ve-
.	.	8G/L	.	8G/L	.	8.G\	-ren-
.	.	8A/	.	8A/	.	.	.
.	.	.	.	.	.	16GG/	-ti-
.	.	8B/	.	8B/	.	4GG/	-a
.	.	8G/J	.	8G/J	.	.	.
=27	=27	=27	=27	=27	=27	=27	=27
!	!	!	!LO:DY:a	!	!	!	!
.	.	8ff\L	p	8ff\L	.	8A\	Tres
.	.	8ff\	.	8ff\	.	8A\	Per-
.	.	8ff\	.	8ff\	.	8A\	-so-
.	.	8ff\J	.	8ff\J	.	8A\	-nas
.	.	8ff\L	.	8ff\L	.	8A\	aſ-
.	.	16ee\L	.	16ee\L	.	8F\	-se-
.	.	16dd\JJ	.	16dd\JJ	.	.	.
!	!	!LO:TX:t=P:problem=mixed beam	!	!LO:TX:t=P:problem=mixed beam	!	!	!
.	.	8ee\L	.	8ee\L	.	8G\	-ren-
.	.	8c/J	.	8c/J	.	8c\	-tes
=28	=28	=28	=28	=28	=28	=28	=28
.	.	8ee\L	.	8ee\L	.	8G\	per-
.	.	8ee\	.	8ee\	.	8G\	-so-
.	.	8ee\	.	8ee\	.	8G\	-na-
.	.	8ee\J	.	8ee\J	.	8G\	-li
.	.	8ee\L	.	16ee\LL	.	8.G\	dif-
.	.	.	.	16dd\J	.	.	.
.	.	16dd\L	.	8cc\J	.	.	.
*	*	*	*	*	*	*custos:F	*
.	.	16cc\JJ	.	.	.	16E\	-fe-
!	!	!	!	!	!	!LO:LB:g=original	!
!	!	!LO:TX:t=P:problem=mixed beam	!	!LO:TX:t=P:problem=mixed beam	!	!	!
.	.	8dd\L	.	8dd\L	.	8F\	-ren-
.	.	8B/J	.	8B/J	.	8d\	-tes
=29	=29	=29	=29	=29	=29	=29	=29
00r	.	8ff\L	.	8ff\L	.	8B\	a
.	.	16ee\L	.	16ee\L	.	16A\LL	se
.	.	16dd\JJ	.	16dd\JJ	.	16G\JJ	.
.	.	8ee\L	.	8ee\L	.	8.d\	dif-
.	.	16dd\L	.	16dd\L	.	.	.
.	.	16cc\JJ	.	16cc\JJ	.	16E\	-fe-
.	.	8dd\L	.	8dd\L	.	8.G\	-ren-
.	.	16cc\L	.	16cc\L	.	.	.
.	.	16b\JJ	.	16b\JJ	.	16GG/	-ti-
.	.	4cc\	.	4cc\	.	4C/	-a
!	!	!LO:LB:g=original	!	!	!	!	!
=30	=30	=30	=30	=30	=30	=30	=30
!	!	!	!LO:DY:a	!	!	!	!
.	.	8ff\L	p	8ff\L	.	8A\	Tres
.	.	8ff\	.	8ff\	.	8A\	Per-
.	.	8ff\	.	8ff\	.	8A\	-so-
.	.	8ff\J	.	8ff\J	.	8A\	-nas
.	.	8ff\L	.	8ff\L	.	8.A\	aſ-
.	.	16ee\L	.	16ee\L	.	.	.
.	.	16dd\JJ	.	16dd\JJ	.	16F\	-se-
!	!	!LO:TX:t=P:problem=mixed beam	!	!LO:TX:t=P:problem=mixed beam	!	!	!
.	.	8ee\L	.	8ee\L	.	8G\	-ren-
.	.	8c/J	.	8c/J	.	8c\	-tes
!	!	!	!	!LO:LB:g=original	!	!	!
=31	=31	=31	=31	=31	=31	=31	=31
.	.	8ee\L	.	8ee\L	.	8G\	Per-
.	.	8ee\	.	8ee\	.	8G\	-so-
.	.	8ee\	.	8ee\	.	8G\	-na-
.	.	8ee\J	.	8ee\J	.	8G\	-li
!	!	!	!	!	!	!LO:LB:g=original	!
.	.	8ee\L	.	8ee\L	.	8.G\	dif-
.	.	16dd\L	.	16dd\L	.	.	.
.	.	16cc\JJ	.	16cc\JJ	.	16E\	-fe-
!	!	!LO:TX:t=P:problem=mixed beam	!	!LO:TX:t=P:problem=mixed beam	!	!	!
.	.	8dd\L	.	8dd\L	.	8F\	-ren-
.	.	8B/J	.	8B/J	.	8d\	-tes
=32	=32	=32	=32	=32	=32	=32	=32
.	.	8ff\L	.	8ff\L	.	8B\	a
.	.	16ee\L	.	16ee\L	.	16A\LL	se
.	.	16dd\JJ	.	16dd\JJ	.	16G\JJ	.
.	.	8ee\L	.	8ee\L	.	8.c\	dif-
.	.	16dd\L	.	16dd\L	.	.	.
.	.	16cc\JJ	.	16cc\JJ	.	16E\	-fe-
.	.	8dd\L	.	8dd\L	.	8.G\	-ren-
.	.	16cc\L	.	16cc\L	.	.	.
.	.	16b\JJ	.	16b\JJ	.	16GG/	-ti-
!	!	!LO:TX:t=P:problem=mixed beam	!	!LO:TX:t=P:problem=mixed beam	!	!	!
.	.	8cc\L	.	8cc\L	.	4C/	-a
.	.	8c/J	.	8c/J	.	.	.
=33	=33	=33	=33	=33	=33	=33	=33
1r	.	8e/L	.	8e/L	.	16c\LL	a
.	.	.	.	.	.	16B\JJ	.
.	.	8r	.	8r	.	16A\LL	se
.	.	.	.	.	.	16G\JJ	.
.	.	8f/J	.	8f/J	.	8.F\	dif-
.	.	8r	.	8r	.	.	.
.	.	.	.	.	.	16C/	-fe-
.	.	8g/L	.	8g/L	.	8.G\	-ren-
.	.	8r	.	8r	.	.	.
.	.	.	.	.	.	16GG/	-ti-
.	.	8c/J	.	8c/J	.	4C/	-a
.	.	8r	.	8r	.	.	.
=34	=34	=34	=34	=34	=34	=34	=34
!	!	!	!LO:DY:a	!	!LO:DY:a	!	!
4C/	.	8g\L	f	8g/L	f	00r	.
.	.	[8cc\J	.	8e/J	.	.	.
4r	.	4cc\]	.	4e/	.	.	.
8C/L	.	16cc\LL	.	16cc\LL	.	.	.
.	.	16b\	.	16b\	.	.	.
8D/	.	16cc\	.	16cc\	.	.	.
.	.	16dd\JJ	.	16dd\JJ	.	.	.
8E/	.	16cc\LL	.	16cc\LL	.	.	.
.	.	16b\	.	16b\	.	.	.
8C/J	.	16cc\	.	16cc\	.	.	.
.	.	16ee\JJ	.	16ee\JJ	.	.	.
!	!	!LO:LB:g=original	!	!	!	!	!
=35	=35	=35	=35	=35	=35	=35	=35
4GG/	7 5	8g\L	.	8g/L	.	.	.
.	.	8dd\J	.	8b/J	.	.	.
*	*	*	*	*custos:b	*	*	*
4r	.	4dd\	.	4b/	.	.	.
!LO:LB:g=original	!	!	!	!LO:LB:g=original	!	!	!
8GG/L	.	16dd\LL	.	16b\LL	.	.	.
.	.	16cc\	.	16a\	.	.	.
8AA/	.	16dd\	.	16b\	.	.	.
.	.	16ee\JJ	.	16cc\JJ	.	.	.
8BB/	.	8dd\L	.	8b\L	.	.	.
8C/J	.	8ee\J	.	8cc\J	.	.	.
=36	=36	=36	=36	=36	=36	=36	=36
4GG/	7 5	8ff\	.	8dd\	.	.	.
.	.	4ee\	.	4cc\	.	.	.
4r	.	.	.	.	.	.	.
.	.	4dd\	.	8b/	.	.	.
4GG/	.	.	.	8b/	.	.	.
.	.	4cc\	.	4a/	.	.	.
4r	.	.	.	.	.	.	.
.	.	8b/	.	8g/	.	.	.
=37	=37	=37	=37	=37	=37	=37	=37
4GG/	.	4.b\	.	4g/	.	.	.
4r	.	.	.	4g/	.	.	.
.	.	8cc\	.	.	.	.	.
4GG/	.	8dd\L	.	8g/L	.	.	.
.	.	16g\L	.	16a/L	.	.	.
.	.	16a\JJ	.	16b/JJ	.	.	.
4r	.	16b\LL	.	16b\LL	.	.	.
.	.	16cc\	.	16cc\	.	.	.
.	.	16dd\	.	16b\	.	.	.
.	.	16ee\JJ	.	16cc\JJ	.	.	.
=38	=38	=38	=38	=38	=38	=38	=38
!	!	!LO:TX:t=P:problem=mixed beam	!	!	!	!	!
4GG/	.	8g/L	.	8g\L	.	00r	.
.	.	8ff\	.	8dd\	.	.	.
8r	.	8ff\	.	8dd\	.	.	.
8C/	.	8ee\J	.	8cc\J	.	.	.
4GG/	.	4dd\	.	4b/	.	.	.
4r	.	4r	.	4r	.	.	.
=39	=39	=39	=39	=39	=39	=39	=39
4C/	.	8g\L	.	8g/L	.	.	.
.	.	[8cc\J	.	8cc/J	.	.	.
4r	.	4cc\]	.	[4cc\	.	.	.
4C/	.	16cc\LL	.	16cc\LL]	.	.	.
.	.	16dd\	.	16dd\	.	.	.
.	.	16ee\	.	16ee\	.	.	.
.	.	16ff\JJ	.	16ff\JJ	.	.	.
*	*	*custos:gg	*	*	*	*	*
4r	.	4gg\	.	[4gg\	.	.	.
!	!	!LO:LB:g=original	!	!LO:LB:g=original	!	!	!
=40	=40	=40	=40	=40	=40	=40	=40
4C/	.	16gg\LL	.	16gg\LL]	.	.	.
.	.	16ff\	.	16ff\	.	.	.
.	.	16ee\	.	16ee\	.	.	.
.	.	16dd\JJ	.	16dd\JJ	.	.	.
8r	.	8cc\L	.	8cc\L	.	.	.
8C/	7 5	8b-X\	.	8g\	.	.	.
8C\L	_ _	8b-\	.	8g\	.	.	.
8F\J	.	8a\J	.	8f\J	.	.	.
4r	.	4r	.	4r	.	.	.
=41	=41	=41	=41	=41	=41	=41	=41
4D/	8 5	8a\L	.	8a\L	.	.	.
.	.	8dd\J	.	8dd\J	.	.	.
4r	.	[4dd\	.	[4dd\	.	.	.
4D/	.	16dd\LL]	.	16dd\LL]	.	.	.
.	.	16ee\	.	16ee\	.	.	.
.	.	16ff\	.	16ff\	.	.	.
.	.	16gg\JJ	.	16gg\JJ	.	.	.
4r	.	[4aa\	.	[4aa\	.	.	.
!LO:LB:g=original	!	!	!	!	!	!	!
=42	=42	=42	=42	=42	=42	=42	=42
4D/	.	16aa\LL]	.	16aa\LL]	.	00r	.
.	.	16gg\	.	16gg\	.	.	.
.	.	16ff\	.	16ff\	.	.	.
.	.	16ee\JJ	.	16ee\JJ	.	.	.
8r	.	8dd\L	.	8dd\L	.	.	.
8F\L	5	8cc\	.	8cc\	.	.	.
8G\	4	8cc\	.	8cc\	.	.	.
8G\J	3	8b\J	.	8b\J	.	.	.
4r	.	4r	.	4r	.	.	.
=43	=43	=43	=43	=43	=43	=43	=43
4G\	.	8g/	.	8g/	.	.	.
.	.	4b/	.	4b/	.	.	.
4r	.	.	.	.	.	.	.
.	.	8dd\	.	8b/	.	.	.
4G\	.	8dd\L	.	4dd\	.	.	.
.	.	8ff\	.	.	.	.	.
4r	.	8ff\	.	4dd\	.	.	.
.	.	8ff\J	.	.	.	.	.
=44	=44	=44	=44	=44	=44	=44	=44
!	!	!LO:TX:t=P:problem=mixed beam	!	!	!	!	!
4G\	7 5	8g/L	.	8b\L	.	.	.
.	.	8ff\J	.	8dd\	.	.	.
8r	.	8ff\L	.	8dd\	.	.	.
8G\L	.	16ee\L	.	8b\J	.	.	.
.	.	16dd\JJ	.	.	.	.	.
8C\	.	8ee\L	.	8cc\L	.	.	.
8G\J	.	8dd\J	.	8b\J	.	.	.
4r	.	4r	.	4r	.	.	.
!	!	!LO:LB:g=original	!	!	!	!	!
=45	=45	=45	=45	=45	=45	=45	=45
!LO:TX:a:rj:t=|:problem	!	!	!	!	!	!	!
8c\L	.	8cc\L	.	8cc\L	.	.	.
!LO:TX:a:rj:t=|:problem	!	!	!	!	!	!	!
16B\L	.	16b\L	.	16b\L	.	.	.
!LO:TX:a:rj:t=|:problem	!	!	!	!	!	!	!
16A\JJ	.	16a\JJ	.	16a\JJ	.	.	.
!LO:TX:a:rj:t=|:problem	!	!	!	!	!	!	!
4G\	.	4g/	.	4g/	.	.	.
!	!	!	!	!LO:LB:g=original	!	!	!
!LO:TX:a:rj:t=|:problem	!	!	!	!	!	!	!
8A\L	.	8a/L	.	8a/L	.	.	.
!LO:TX:a:rj:t=|:problem	!	!	!	!	!	!	!
16G\L	.	16g/L	.	16g/L	.	.	.
!LO:TX:a:rj:t=|:problem	!	!	!	!	!	!	!
16F\JJ	.	16f/JJ	.	16f/JJ	.	.	.
!LO:TX:a:rj:t=|:problem	!	!	!	!	!	!	!
4E\	.	4e/	.	4e/	.	.	.
=46	=46	=46	=46	=46	=46	=46	=46
*	*	*	*	*	*	*custos:A	*
!LO:TX:a:rj:t=|:problem	!	!	!	!	!	!	!
8F\L	.	8f/L	.	8f/L	.	1r;<;>	.
!LO:TX:a:rj:t=|:problem	!	!	!	!	!	!	!
16E\L	.	16e/L	.	16e/L	.	.	.
!LO:TX:a:rj:t=|:problem	!	!	!	!	!	!	!
16D\JJ	.	16d/JJ	.	16d/JJ	.	.	.
!LO:TX:t=P:problem=mixed beam	!	!	!	!	!	!	!
8G\L	.	8g/L	.	8g/L	.	.	.
8GG/J	.	8G/J	.	8G/J	.	.	.
!	!	!LO:TX:a:rj:t=Finis	!	!LO:TX:a:rj:t=Finis	!	!	!
4C/	.	4c;</	.	4c;</	.	.	.
4r	.	4r	.	4r	.	.	.
!	!	!	!	!	!	!LO:LB:g=original	!
=47	=47	=47||	=47||	=47||	=47||	=47||	=47||
*>B	*	*	*	*	*	*	*
!	!	!LO:TX:t=P:problem=mixed beam	!	!	!	!	!
!	!	!	!	!LO:TX:t=P:problem=mixed beam	!	!	!
!	!	!	!LO:DY:a	!	!	!	!
00r	.	8aa\L	p	8aa\L	.	8A\	no-
.	.	8a/J	.	8a/J	.	8B\	-stram
.	.	4r	.	4r	.	8c\	fac
.	.	.	.	.	.	8G#X\	in-
!	!	!LO:TX:t=P:problem=mixed beam	!	!LO:TX:t=P:problem=mixed beam	!	!	!
.	.	8aa\L	.	8aa\L	.	8A\	-fir-
.	.	8a/J	.	8a/	.	8B\	-mi-
.	.	8g#X/L	.	8g#X/	.	8E\	-ta-
.	.	8e/J	.	8e/J	.	8E\	-tem
=48	=48	=48	=48	=48	=48	=48	=48
!	!	!LO:TX:t=P:problem=mixed beam	!	!LO:TX:t=P:problem=mixed beam	!	!	!
.	.	8aa\L	.	8aa\L	.	8A\	Per
!	!	!	!	!	!	!LO:TX:t=P:problem=niezrozumiały tekst	!
.	.	8a/J	.	8a/J	.	8B\	ſpe
.	.	8e/L	.	8e/L	.	8c\	Fidei
.	.	8e/J	.	8e/J	.	8G#X\	in
.	.	8A/L	.	8A/L	.	8A\	Cha-
.	.	8d/J	.	8d/	.	8B\	-ri-
.	.	8e/L	.	8e/	.	8E\	-ta-
.	.	8e/J	.	8e/J	.	8E\	-tem
=49	=49	=49	=49	=49	=49	=49	=49
.	.	8g#X/L	.	8g#X/L	.	8e\	Tu-
.	.	8f/	.	8f/	.	8B\	-a
.	.	8g#/	.	8g#/	.	8c\	fir-
.	.	8e/J	.	8e/J	.	8G#X\	-met
!	!	!LO:LB:g=original	!	!	!	!	!
!	!	!LO:TX:t=P:problem=mixed beam	!	!LO:TX:t=P:problem=mixed beam	!	!	!
.	.	8f-X/L	.	8f-X/L	.	8A\	gra-
.	.	8d/	.	8d/	.	8B\	-ti-
.	.	8e/	.	8e/	.	4E\	-a
.	.	8ee\J	.	8ee\J	.	.	.
!	!	!	!	!	!	!LO:LB:g=original	!
=50	=50	=50	=50	=50	=50	=50	=50
.	.	8ff\L	.	8ff\L	.	8d\	ut
.	.	8dd\	.	8dd\	.	8B\	in
.	.	8b\	.	8b\	.	8Gn\	u-
.	.	8b\J	.	8b\J	.	8G\	-na
!	!	!	!	!LO:LB:g=original	!	!	!
.	.	8b/L	.	8b\L	.	8G\	iam
.	.	16a/L	.	16a\L	.	8B\	mo-
.	.	16g/JJ	.	16g\JJ	.	.	.
.	.	[4ee\	.	[4cc\	.	8c\	-ra-
.	.	.	.	.	.	8C/	-mur
=51	=51	=51	=51	=51	=51	=51	=51
00r	.	8ee\L]	.	8cc\L]	.	8c\	sic
.	.	8cc\	.	8a\	.	8A\	in
.	.	8a\	.	8f\	.	8F\	u-
.	.	8a\J	.	8f\J	.	8F\	-na
.	.	8a/L	.	8f/L	.	8.F\	mo-
.	.	16g/L	.	16e/L	.	.	.
.	.	16f/JJ	.	16d/JJ	.	16D\	-ri-
.	.	[4dd\	.	[4dd\	.	8B\	-a-
.	.	.	.	.	.	8B\	-mur
=52	=52	=52	=52	=52	=52	=52	=52
.	.	8dd\L]	.	8dd\L]	.	8.G#X\	Fi-
.	.	16cc\L	.	16cc\L	.	.	.
.	.	16b\JJ	.	16b\JJ	.	16E\	-de-
.	.	8cc\L	.	8cc\L	.	8A\	-i
.	.	16b\L	.	16b\L	.	8D/	Con-
.	.	16a\JJ	.	16a\JJ	.	.	.
.	.	8b/L	.	8b/L	.	8.E\	-stan-
.	.	16a/L	.	16a/L	.	.	.
.	.	16g#X/JJ	.	16g#X/JJ	.	16E\	-ti-
.	.	8a/L	.	8a/L	.	4AA/	-a
.	.	8A/J	.	8A/J	.	.	.
!	!	!	!	!	!	!LO:LB:g=original	!
=53	=53	=53	=53	=53	=53	=53	=53
.	.	8ff\L	.	8ff\L	.	8d\	ut
.	.	8dd\J	.	8dd\J	.	8B\	in
.	.	8b\L	.	8b/L	.	8G\	u-
.	.	8b\J	.	8b/J	.	8G\	-na
.	.	8b/L	.	8b/L	.	8G\	iam
.	.	16a/L	.	16a/L	.	8B\	mo-
.	.	16g/JJ	.	16g/JJ	.	.	.
.	.	[4ee\	.	[4ee\	.	8c\	-ra-
.	.	.	.	.	.	8C/	-mur
!	!	!LO:LB:g=original	!	!	!	!	!
=54	=54	=54	=54	=54	=54	=54	=54
.	.	8ee\L]	.	8ee\L]	.	8c\	sic
.	.	8cc\	.	8cc\	.	8A\	in
.	.	8a\	.	8a\	.	8F\	u-
.	.	8a\J	.	8a\J	.	8F\	-na
.	.	8a/L	.	8a/L	.	8.F\	mo-
.	.	16g/L	.	16g/L	.	.	.
.	.	16f/JJ	.	16f/JJ	.	16D/	-ri-
.	.	[4dd\	.	[4dd\	.	8B\	-a-
.	.	.	.	.	.	8B\	-mur
!	!	!	!	!LO:LB:g=original	!	!	!
=55	=55	=55	=55	=55	=55	=55	=55
0r	.	8dd\L]	.	8dd\L]	.	8.G\	Fi-
.	.	16cc\L	.	16cc\L	.	.	.
.	.	16b\JJ	.	16b\JJ	.	16E\	-de-
.	.	8cc\L	.	8cc\L	.	8A\	-i
.	.	16b\L	.	16b\L	.	8D/	con-
.	.	16a\JJ	.	16a\JJ	.	.	.
.	.	8b/L	.	8b/L	.	8.E\	-stan-
.	.	16a/L	.	16a/L	.	.	.
.	.	16g#X/JJ	.	16g#X/JJ	.	16E\	-ti-
.	.	4a/	.	4a/	.	4AA/	-a
!	!	!	!	!	!	!LO:LB:g=original	!
=56	=56	=56	=56	=56	=56	=56	=56
!LO:TX:a:rj:t=Da Capo\nad fine(m)	!	!	!	!	!	!	!
.	.	8dd\L	.	8dd\L	.	8.G\	Fi-
.	.	16cc\L	.	16cc\L	.	.	.
.	.	16b\JJ	.	16b\JJ	.	16E\	-de-
.	.	8cc\L	.	8cc\L	.	8A\	-i
.	.	16b\L	.	16b\L	.	8D/	con-
.	.	16a\JJ	.	16a\JJ	.	.	.
.	.	8b/L	.	8b\L	.	8.E\	-stan-
.	.	16a/L	.	16a\L	.	.	.
.	.	16g#X/JJ	.	16g#X\JJ	.	16E\	-ti-
!	!	!LO:TX:a:rj:t=Da Capo\nad finem	!	!LO:TX:a:rj:t=Da Capo\nad finem	!	!	!
.	.	4a/	.	4a/	.	4AA/	-a.
==	==	==	==	==	==	==	==
*-	*-	*-	*-	*-	*-	*-	*-
!!!system-decoration: [s1,s2,s3,s4]
!!!RDF**kern: > = above
!!!RDF**kern: < = below
!!!RDF**dynam: p = piano
!!!RDF**dynam: f = forte
!!!ENC: Marcin Jachim
!!!END: 2020-12-11
!!!ENC: Leszek Kubiak
!!!END: 2022-03-29
